X: 35525
T: Ruined Old Cottage In The Glen, The
R: reel
M: 4/4
K: Edorian
B2 BA DEFA|BdAd (3Bcd ef|dBAF DEFA|B2 AF FEED|
B2 AF DEFA|BdAd (3Bcd ef|dBAF DEFA|B2 AF FEED||
Beed AddA|Beef gfed|Beed Adef|dBAF FEED|
Beed AddA|BABc defe|dBAF DEFA|B2 AF FEED||

